packages/credential/logos/bemo-black.svg

<svg width="24" height="24" viewBox="0 0 24 24" fill="none" xmlns="http://www.w3.org/2000/svg">
    <path
        d="M13.6927 18.099L10.0085 15.7953C9.53554 15.4988 9.24813 14.9806 9.24813 14.4216V3.38489C9.24813 2.68562 8.48551 2.25338 7.88579 2.61094L4.58859 4.58203C4.05226 4.90338 3.72412 5.48045 3.72412 6.10502V17.6102C3.72412 18.2348 4.04547 18.8142 4.57502 19.1423L8.22526 21.4121C8.85438 21.8036 9.64644 21.8104 10.2824 21.4302L13.6791 19.398C14.1702 19.1083 14.177 18.4023 13.6927 18.099Z"
        fill="black" />
    <path
        d="M19.425 8.21652L15.7747 5.94669C15.1456 5.5552 14.3535 5.54841 13.7177 5.92861L10.3208 7.96079C9.83203 8.25271 9.82523 8.95878 10.3073 9.26202L13.9915 11.5658C14.4644 11.8622 14.7518 12.3805 14.7518 12.9394V18.8753C14.7518 19.5746 15.5145 20.0068 16.1142 19.6493L19.4114 17.6782C19.9477 17.3568 20.2759 16.7798 20.2759 16.1552V9.74856C20.2759 9.12396 19.9545 8.54464 19.425 8.21652Z"
        fill="black" />
</svg>

<svg width="24" height="24" fill="none" xmlns="http://www.w3.org/2000/svg"><path d="m13.693 18.099-3.684-2.304a1.62 1.62 0 0 1-.76-1.373V3.385a.901.901 0 0 0-1.363-.774L4.589 4.582a1.775 1.775 0 0 0-.865 1.523V17.61a1.8 1.8 0 0 0 .851 1.532l3.65 2.27c.63.392 1.421.398 2.057.018l3.397-2.032a.76.76 0 0 0 .014-1.299z" fill="#000"/><path d="m19.425 8.217-3.65-2.27a1.972 1.972 0 0 0-2.057-.018L10.32 7.96a.763.763 0 0 0-.014 1.301l3.684 2.304c.473.296.76.814.76 1.373v5.936c0 .7.764 1.132 1.363.774l3.297-1.97c.537-.322.865-.9.865-1.524V9.75a1.8 1.8 0 0 0-.851-1.532z" fill="#000"/></svg>
